X: 87
P: No. LXXXVII.
M: 3/2
L: 1/8
K: G
V: 1
[|\
g3d' bc'd'b abc'a | efge dcB2 AFD2 |]
[|\
gfg2 def2 g2d2 | gfg2 dcB2{c} AFD2 |\
gfg2 def2 g2d2 | efge dcB2 AFD2 |]
V: 2 clef=bass middle=d
[| G4 g4 d4 | B4 G4 d4 | B4 G4 d4 | c4 g4 d4 |]
[| B4 d4 g4 | B4 G4 d4 | B4 d4 g4 | c4 G4 d4 |]

